!!!OTL: 728c. Liebesglueck.
!!!ARE: Europa, Mitteleuropa, Deutschland, Niederrhein, Meurs
!!!SCT: E0728B
!!!TXL: @@DE
!!!YEM: Copyright 1995, estate of Helmut Schaffrath.
**kern	**text
*ICvox	*
!! Mixed meters:  4/4; 2/4
*M4/4	*
*met(c)	*
*k[f#]	*
*G:	*
!LO:TX:a:t=Mäßig.	!
!LO:TX:a:t=Aus Meurs am Niederrhein, Ldh. Nr. 1280.	!
{4d	Mein
=1	=1
4g	Glück
4g	blüht_auf
8gL	die-
8dJ	.
8dL	-ſer
8f#J	.
=2	=2
2g	Welt,
4r}	.
{8gL	mein
8aJ	.
=3	=3
4b	Glück
8b	blüht
8dd	auf
4cc	die-
4b	-ſer
=4	=4
*M2/4	*
(8ccL	Welt,
8bJ)}	.
{8a	wie
8g	der
=5	=5
*M4/4	*
*met(c)	*
8.d	Wei-
16d	-ʒen
8d	auf
8cc	dem
4.b	grü-
8a	-nen
=6	=6
*M2/4	*
4b}	Feld,
{8cc	wie
8a	der
=7	=7
*M4/4	*
*met(c)	*
8.g	Wei-
16g	-ʒen
8g	auf
8b/	dem
8bL	grü-
8aJ	.
8aL	-nen
8f#J	.
=8	=8
2g	Feld.
4r}	.
==	==
!!!AGN: Liebes - Lied, Leid, Klage. +++ TAKTART 2/4 ergaenzt +++
!!!ONB: ESAC (Essen Associative Code) Database: ERK2
!!!AMT: irregular
!!!AIN: vox
!!!EED: Helmut Schaffrath
!!!EEV: 1.0
!!!GTL: Liebeslieder [Neuere (aus dem 18. bis 19. Jahrh.) - Liebesleid] 678-740
!!!URL-scan: https://rosdok.uni-rostock.de/mcrviewer/recordIdentifier/rosdok_ppn745177662/iview2/phys_0535.iview2?x=193.8995864193107&y=966.6320834173821&scale=0.7029437510502773&rotation=0&layout=singlePageLayout
!!!ENC: Anna Maria Matuszewska
!!!EEV: 2024/12/16
*-	*-
